src/assets/outline/MainComponent.svg

<svg width="24" height="24" viewBox="0 0 24 24"  xmlns="http://www.w3.org/2000/svg">
<path d="M11.9998 22.7495C10.8298 22.7495 9.73977 22.2995 8.91977 21.4795L2.52975 15.0895C1.70975 14.2695 1.25977 13.1695 1.25977 12.0095C1.25977 10.8495 1.70975 9.7495 2.52975 8.9295L8.91977 2.53949C9.73977 1.71949 10.8398 1.26953 11.9998 1.26953C13.1598 1.26953 14.2597 1.71949 15.0797 2.53949L21.4698 8.9295C22.2898 9.7495 22.7397 10.8495 22.7397 12.0095C22.7397 13.1695 22.2898 14.2695 21.4698 15.0895L15.0797 21.4795C14.2597 22.2995 13.1698 22.7495 11.9998 22.7495ZM11.9998 2.74951C11.2298 2.74951 10.5098 3.04953 9.97977 3.57953L3.58975 9.96948C3.04975 10.5095 2.75977 11.2295 2.75977 11.9895C2.75977 12.7495 3.05975 13.4795 3.58975 14.0095L9.97977 20.3995C11.0498 21.4695 12.9497 21.4695 14.0197 20.3995L20.4098 14.0095C20.9498 13.4695 21.2397 12.7595 21.2397 11.9895C21.2397 11.2195 20.9398 10.4995 20.4098 9.96948L14.0197 3.57953C13.4897 3.04953 12.7698 2.74951 11.9998 2.74951Z" />
<path d="M17.7499 18.4995C17.5599 18.4995 17.3699 18.4295 17.2199 18.2795L5.71994 6.77951C5.42994 6.48951 5.42994 6.00945 5.71994 5.71945C6.00994 5.42945 6.48994 5.42945 6.77994 5.71945L18.2799 17.2195C18.5699 17.5095 18.5699 17.9895 18.2799 18.2795C18.1299 18.4295 17.9399 18.4995 17.7499 18.4995Z" />
<path d="M6.24994 18.4995C6.05994 18.4995 5.86994 18.4295 5.71994 18.2795C5.42994 17.9895 5.42994 17.5095 5.71994 17.2195L17.2199 5.71945C17.5099 5.42945 17.9899 5.42945 18.2799 5.71945C18.5699 6.00945 18.5699 6.48951 18.2799 6.77951L6.77994 18.2795C6.62994 18.4295 6.43994 18.4995 6.24994 18.4995Z" />
</svg>

<?xml version="1.0" encoding="UTF-8"?>
<svg width="24" height="24" viewBox="0 0 24 24" xmlns="http://www.w3.org/2000/svg">
 <path d="m12 22.75c-1.17 0-2.26-0.45-3.08-1.27l-6.39-6.39c-0.82-0.82-1.27-1.92-1.27-3.08s0.44998-2.26 1.27-3.08l6.39-6.39c0.82-0.82 1.92-1.27 3.08-1.27s2.2599 0.44996 3.0799 1.27l6.3901 6.39c0.82 0.82 1.2699 1.92 1.2699 3.08s-0.4499 2.26-1.2699 3.08l-6.3901 6.39c-0.82 0.82-1.9099 1.27-3.0799 1.27zm0-20c-0.77 0-1.49 0.30002-2.02 0.83002l-6.39 6.39c-0.54 0.54002-0.82998 1.26-0.82998 2.02s0.29998 1.49 0.82998 2.02l6.39 6.39c1.07 1.07 2.9699 1.07 4.0399 0l6.3901-6.39c0.54-0.54 0.8299-1.25 0.8299-2.02s-0.2999-1.49-0.8299-2.02l-6.3901-6.39c-0.53-0.53-1.2499-0.83002-2.0199-0.83002z"/>
 <path d="m17.75 18.5c-0.19 0-0.38-0.07-0.53-0.22l-11.5-11.5c-0.29-0.29-0.29-0.77006 0-1.0601s0.77-0.29 1.06 0l11.5 11.5c0.29 0.29 0.29 0.77 0 1.06-0.15 0.15-0.34 0.22-0.53 0.22z"/>
 <path d="m6.2499 18.5c-0.19 0-0.38-0.07-0.53-0.22-0.29-0.29-0.29-0.77 0-1.06l11.5-11.5c0.29-0.29 0.77-0.29 1.06 0s0.29 0.77006 0 1.0601l-11.5 11.5c-0.15 0.15-0.34 0.22-0.53 0.22z"/>
</svg>
